Papirus/32x32/apps/allegorithmic-Substance_Painter.svg

<svg width="32" height="32" version="1.1" xmlns="http://www.w3.org/2000/svg">
 <path d="m15.999969 1.0000248a1.9999696 1.9999696 0 0 0-1.999969 1.9999748 1.9999696 1.9999696 0 0 0 1.999969 1.9999747 1.9999696 1.9999696 0 0 0 1.99997-1.9999747 1.9999696 1.9999696 0 0 0-1.99997-1.9999748z" style="fill:#e2222f"/>
 <path d="m16 5.9999995a11 11.000004 0 0 0-11 11.000012 11 11.000004 0 0 0 11 10.999975 11 11.000004 0 0 0 11-10.999975 11 11.000004 0 0 0-11-11.000012z" style="fill:#e2222f"/>
 <path d="m28.000002 23.000012a2.999975 2.9999957 0 0 0-2.999977 2.999962 2.999975 2.9999957 0 0 0 2.999977 3 2.999975 2.9999957 0 0 0 2.999974-3 2.999975 2.9999957 0 0 0-2.999974-2.999962z" style="fill:#e2222f"/>
 <path d="m3.4999996 23.999999a1.5 1.4999996 0 0 0-1.4999997 1.499981 1.5 1.4999996 0 0 0 1.4999997 1.500019 1.5 1.4999996 0 0 0 1.5000005-1.500019 1.5 1.4999996 0 0 0-1.5000005-1.499981z" style="fill:#e2222f"/>
 <path d="m14.064453 3.4960626a1.9999696 1.9999696 0 0 0-0.06445 0.5039244 1.9999696 1.9999696 0 0 0 2 2.0000125 1.9999696 1.9999696 0 0 0 2-2.0000125 1.9999696 1.9999696 0 0 0-0.06445-0.4961008 1.9999696 1.9999696 0 0 1-1.935547 1.4960881 1.9999696 1.9999696 0 0 1-1.935547-1.5039117zm-9.0429682 13.917996a11 11.000004 0 0 0-0.021468 0.58594 11 11.000004 0 0 0 11 10.999975 11 11.000004 0 0 0 11-10.999975 11 11.000004 0 0 0-0.02147-0.414085 11 11.000004 0 0 1-10.978514 10.414073 11 11.000004 0 0 1-10.978515-10.585928zm-2.933593 8.585915a1.5 1.4999996 0 0 0-0.087874 0.500031 1.5 1.4999996 0 0 0 1.5000019 1.499982 1.5 1.4999996 0 0 0 1.4999997-1.499982 1.5 1.4999996 0 0 0-0.087908-0.500031 1.5 1.4999996 0 0 1-1.4121091 1.000025 1.5 1.4999996 0 0 1-1.4121104-1.000025zm22.955077 0.48635a2.999975 2.9999957 0 0 0-0.04297 0.513675 2.999975 2.9999957 0 0 0 3 3 2.999975 2.9999957 0 0 0 3-3 2.999975 2.9999957 0 0 0-0.04297-0.486349 2.9999749 2.9999957 0 0 1-2.95703 2.486324 2.9999749 2.9999957 0 0 1-2.95703-2.51365z" style="fill:#000006;opacity:.2"/>
 <path d="m16 0.999987a1.9999696 1.9999696 0 0 0-2 2.0000126 1.9999696 1.9999696 0 0 0 0.06445 0.496063 1.9999696 1.9999696 0 0 1 1.935549-1.4960882 1.9999696 1.9999696 0 0 1 1.935546 1.5039118 1.9999696 1.9999696 0 0 0 0.06445-0.5038866 1.9999696 1.9999696 0 0 0-1.999995-2.0000126zm0 5.0000125a11 11.000004 0 0 0-11 10.999974 11 11.000004 0 0 0 0.0214677 0.414085 11 11.000004 0 0 1 10.978516-10.414072 11 11.000004 0 0 1 10.978515 10.585927 11 11.000004 0 0 0 0.021467-0.58594 11 11.000004 0 0 0-10.999966-10.999974zm11.999999 16.999974a2.999975 2.9999957 0 0 0-3 3 2.999975 2.9999957 0 0 0 0.04297 0.48635 2.9999749 2.9999957 0 0 1 2.95703-2.486325 2.9999749 2.9999957 0 0 1 2.957031 2.513651 2.999975 2.9999957 0 0 0 0.04297-0.513676 2.999975 2.9999957 0 0 0-3-3zm-24.499998 1.000025a1.5 1.4999996 0 0 0-1.5000015 1.499981 1.5 1.4999996 0 0 0 0.087874 0.499994 1.5 1.4999996 0 0 1 1.4121105-0.999987 1.5 1.4999996 0 0 1 1.4121089 0.999987 1.5 1.4999996 0 0 0 0.0878929-0.499994 1.5 1.4999996 0 0 0-1.4999999-1.499981z" style="fill:#ffffeb;opacity:.2"/>
 <path d="m16 8.9999617-8.0000015 3.9999873 1.5e-6 4.000025 12 4.000025-4 1.999975-4-1.999975v-1.000025l-4-1.333342v4.333342l8 4.000025 8-4.000025-2e-6 -3-12-5.000012 4-2.000013 4 2.000013v0.999987l4 1.333342v-4.333342z" style="fill-opacity:.9004525;fill:#000005;opacity:.2"/>
 <path d="m16 8.0000121-8.0000015 3.9999869 1.5e-6 4.000026 12 4.000025-4 1.999974-4-1.999974v-1.000025l-4-1.333342v4.333341l8 4.000026 8-4.000026-2e-6 -4.000025-12-3.999987 4-2.000013 4 2.000013v0.999987l4 1.333342v-4.333342z" style="fill:#fdffff"/>
</svg>

<svg xmlns="http://www.w3.org/2000/svg" width="32" height="32" version="1.1">
 <circle style="opacity:0.2" cx="16" cy="4" r="2"/>
 <circle style="opacity:0.2" cx="3.5" cy="26.5" r="1.5"/>
 <circle style="opacity:0.2" cx="28" cy="27" r="3"/>
 <circle style="opacity:0.2" cx="16" cy="18" r="11"/>
 <circle style="fill:#e2222f" cx="16" cy="3" r="2"/>
 <circle style="fill:#e2222f" cx="3.5" cy="25.5" r="1.5"/>
 <circle style="fill:#e2222f" cx="28" cy="26" r="3"/>
 <circle style="fill:#e2222f" cx="16" cy="17" r="11"/>
 <path style="opacity:0.2" d="M 16,9 8,13 V 17 L 20,21 16,23 12,21 V 20 L 8,18.667 V 23 L 16,27 24,23 V 19 L 12,15 16,13 20,15 V 16 L 24,17.333 V 13 Z"/>
 <path style="fill:#fdffff" d="M 16,8 8,12 V 16 L 20,20 16,22 12,20 V 19 L 8,17.667 V 22 L 16,26 24,22 V 18 L 12,14 16,12 20,14 V 15 L 24,16.333 V 12 Z"/>
 <path style="opacity:0.2;fill:#ffffff" d="M 16 1 A 2 2 0 0 0 14 3 A 2 2 0 0 0 14.064 3.5039 A 2 2 0 0 1 16 2 A 2 2 0 0 1 17.936 3.4961 A 2 2 0 0 0 18 3 A 2 2 0 0 0 16 1 z"/>
 <path style="opacity:0.2;fill:#ffffff" d="M 3.5 24 A 1.5 1.5 0 0 0 2 25.5 A 1.5 1.5 0 0 0 2.0879 26 A 1.5 1.5 0 0 1 3.5 25 A 1.5 1.5 0 0 1 4.9121 26 A 1.5 1.5 0 0 0 5 25.5 A 1.5 1.5 0 0 0 3.5 24 z"/>
 <path style="opacity:0.2;fill:#ffffff" d="M 28 23 A 3 3 0 0 0 25 26 A 3 3 0 0 0 25.043 26.514 A 3 3 0 0 1 28 24 A 3 3 0 0 1 30.957 26.486 A 3 3 0 0 0 31 26 A 3 3 0 0 0 28 23 z"/>
 <path style="opacity:0.2;fill:#ffffff" d="M 16 6 A 11 11 0 0 0 5 17 A 11 11 0 0 0 5.0215 17.586 A 11 11 0 0 1 16 7 A 11 11 0 0 1 26.979 17.414 A 11 11 0 0 0 27 17 A 11 11 0 0 0 16 6 z"/>
</svg>
